;FLAVOR:Marlin
;TIME:2781
;Filament used: 1.84446m
;Layer height: 0.2
;MINX:112.671
;MINY:85.656
;MINZ:0.2
;MAXX:122.344
;MAXY:149.356
;MAXZ:24
;Generated with Cura_SteamEngine 4.10.0
M140 S60
M105
M190 S60
M104 S200
M105
M109 S200
M82 ;absolute extrusion mode
; Ender 3 Custom Start G-code
G92 E0 ; Reset Extruder
G28 ; Home all axes
G29
G1 Z2.0 F3000 ; Move Z Axis up little to prevent scratching of Heat Bed
G1 X0.1 Y20 Z0.3 F5000.0 ; Move to start position
G1 X0.1 Y200.0 Z0.3 F1500.0 E15 ; Draw the first line
G1 X0.4 Y200.0 Z0.3 F5000.0 ; Move to side a little
G1 X0.4 Y20 Z0.3 F1500.0 E30 ; Draw the second line
G92 E0 ; Reset Extruder
G1 Z2.0 F3000 ; Move Z Axis up little to prevent scratching of Heat Bed
G1 X5 Y20 Z0.3 F5000.0 ; Move over to prevent blob squish
G92 E0
G92 E0
G1 F1500 E-6.5
;LAYER_COUNT:120
;LAYER:0
M107
;MESH:Cnc_Clamp_-_Runt_Clamp_8_mm_Hole_.stl
G0 F6000 X118.961 Y148.942 Z0.2
;TYPE:WALL-INNER
G1 F1500 E0
G1 F900 X118.819 Y148.884 E0.0051
G1 X118.72 Y148.774 E0.01002
G1 X118.668 Y148.545 E0.01783
G1 X119.032 Y143.622 E0.18202
G1 X113.096 Y142.515 E0.38286
G1 X115.564 Y109.08 E1.49794
G1 X113.715 Y90.221 E2.1282
G1 X114.007 Y86.277 E2.25973
G1 X114.02 Y86.091 E2.26593
G1 X114.075 Y86.096 E2.26777
G1 X114.259 Y86.126 E2.272
G1 X114.491 Y86.165 E2.27983
G1 X114.911 Y86.278 E2.29429
G1 X115.318 Y86.428 E2.30872
G1 X115.696 Y86.611 E2.32269
G1 X116.058 Y86.828 E2.33672
G1 X116.411 Y87.088 E2.35131
G1 X116.732 Y87.373 E2.36558
G1 X117.024 Y87.687 E2.37985
G1 X117.284 Y88.024 E2.394
G1 X117.518 Y88.392 E2.40851
G1 X117.711 Y88.774 E2.42274
G1 X117.869 Y89.172 E2.43698
G1 X117.987 Y89.576 E2.45098
G1 X118.07 Y90.006 E2.46555
G1 X118.112 Y90.431 E2.47975
G1 X118.128 Y90.933 E2.49646
G1 X118.651 Y91.365 E2.51902
G1 X118.73 Y92.167 E2.54582
G1 X117.746 Y93.366 E2.59741
G1 X118.944 Y94.352 E2.64902
G1 X119.023 Y95.152 E2.67576
G1 X118.037 Y96.352 E2.72741
G1 X119.236 Y97.338 E2.77904
G1 X119.315 Y98.139 E2.80582
G1 X118.331 Y99.338 E2.8574
G1 X119.529 Y100.323 E2.90899
G1 X119.608 Y101.124 E2.93576
G1 X118.622 Y102.323 E2.98739
G1 X119.821 Y103.309 E3.03902
G1 X119.9 Y104.11 E3.06579
G1 X118.916 Y105.309 E3.11738
G1 X120.114 Y106.295 E3.16899
G1 X120.193 Y107.095 E3.19573
G1 X119.333 Y108.142 E3.24079
G1 X119.207 Y108.295 E3.24738
G1 X119.36 Y108.421 E3.25164
G1 X120.406 Y109.28 E3.29666
G1 X120.485 Y110.081 E3.32343
G1 X119.501 Y111.281 E3.37505
G1 X120.699 Y112.266 E3.42663
G1 X120.778 Y113.066 E3.45337
G1 X119.792 Y114.266 E3.50503
G1 X120.991 Y115.252 E3.55666
G1 X121.071 Y116.053 E3.58343
G1 X120.211 Y117.099 E3.62847
G1 X120.085 Y117.252 E3.63506
G1 X120.238 Y117.378 E3.63933
G1 X121.284 Y118.237 E3.68434
G1 X121.361 Y119.04 E3.71117
G1 X120.38 Y120.24 E3.76273
G1 X121.577 Y121.223 E3.81424
G1 X121.656 Y122.023 E3.84098
G1 X120.671 Y123.222 E3.89259
G1 X121.764 Y124.122 E3.93968
G1 X121.943 Y139.574 E4.45365
G1 X120.11 Y147.437 E4.72219
G1 X119.984 Y147.835 E4.73607
G1 X119.892 Y148.039 E4.74352
G1 X119.676 Y148.398 E4.75745
G1 X119.547 Y148.564 E4.76444
G1 X119.27 Y148.846 E4.77759
G1 X119.106 Y148.935 E4.7838
G1 X118.961 Y148.942 E4.78863
G0 F6000 X118.891 Y149.346
;TYPE:WALL-OUTER
G1 F900 X118.583 Y149.219 E4.79971
G1 X118.363 Y148.975 E4.81063
G1 X118.268 Y148.658 E4.82164
G1 X118.268 Y148.534 E4.82577
G1 X118.607 Y143.95 E4.97865
G1 X112.671 Y142.842 E5.17949
G1 X115.163 Y109.085 E6.30531
G1 X113.314 Y90.225 E6.9356
G1 X113.651 Y85.657 E7.08794
G1 X114.114 Y85.697 E7.1034
G1 X114.579 Y85.775 E7.11908
G1 X115.034 Y85.897 E7.13475
G1 X115.469 Y86.058 E7.15018
G1 X115.893 Y86.262 E7.16583
G1 X116.283 Y86.496 E7.18096
G1 X116.665 Y86.778 E7.19675
G1 X117.014 Y87.088 E7.21227
G1 X117.327 Y87.424 E7.22755
G1 X117.612 Y87.794 E7.24308
G1 X117.867 Y88.196 E7.25891
G1 X118.077 Y88.61 E7.27435
G1 X118.247 Y89.038 E7.28967
G1 X118.377 Y89.485 E7.30515
G1 X118.466 Y89.945 E7.32074
G1 X118.512 Y90.408 E7.33621
G1 X118.522 Y90.74 E7.34726
G1 X119.033 Y91.162 E7.3693
G1 X119.144 Y92.293 E7.4071
G1 X118.309 Y93.311 E7.45089
G1 X119.326 Y94.148 E7.4947
G1 X119.437 Y95.278 E7.53247
G1 X118.6 Y96.297 E7.57633
G1 X119.618 Y97.134 E7.62016
G1 X119.729 Y98.265 E7.65796
G1 X118.894 Y99.283 E7.70175
G1 X119.911 Y100.119 E7.74554
G1 X120.022 Y101.25 E7.78333
G1 X119.185 Y102.268 E7.82717
G1 X120.203 Y103.105 E7.871
G1 X120.314 Y104.236 E7.9088
G1 X119.479 Y105.254 E7.95259
G1 X120.496 Y106.091 E7.9964
G1 X120.607 Y107.221 E8.03416
G1 X119.77 Y108.24 E8.07802
G1 X120.788 Y109.076 E8.12184
G1 X120.899 Y110.207 E8.15963
G1 X120.064 Y111.226 E8.20345
G1 X121.081 Y112.062 E8.24724
G1 X121.192 Y113.192 E8.285
G1 X120.355 Y114.211 E8.32886
G1 X121.373 Y115.048 E8.3727
G1 X121.485 Y116.179 E8.4105
G1 X120.648 Y117.197 E8.45433
G1 X121.666 Y118.033 E8.49815
G1 X121.775 Y119.166 E8.536
G1 X120.942 Y120.184 E8.57975
G1 X121.959 Y121.019 E8.62352
G1 X122.07 Y122.149 E8.66128
G1 X121.234 Y123.167 E8.7051
G1 X122.162 Y123.931 E8.74508
G1 X122.344 Y139.62 E9.26693
G1 X120.5 Y147.528 E9.53701
G1 X120.431 Y147.775 E9.54554
G1 X120.352 Y147.994 E9.55328
G1 X120.249 Y148.222 E9.5616
G1 X120.005 Y148.627 E9.57733
G1 X119.851 Y148.825 E9.58567
G1 X119.512 Y149.17 E9.60176
G1 X119.218 Y149.329 E9.61287
G1 X118.891 Y149.346 E9.62377
G0 F6000 X118.965 Y148.913
G0 X119.061 Y148.502
;TYPE:SKIN
G1 F900 X119.447 Y143.302 E9.79719
G1 X113.51 Y142.195 E9.99806
G1 X115.956 Y109.076 E11.10261
G1 X114.105 Y90.211 E11.73307
G1 X114.377 Y86.541 E11.85547
G1 X114.405 Y86.545 E11.85641
G1 X114.787 Y86.649 E11.86958
G1 X115.166 Y86.788 E11.88301
G1 X115.503 Y86.951 E11.89546
G1 X115.851 Y87.16 E11.90896
G1 X116.162 Y87.388 E11.92178
G1 X116.46 Y87.653 E11.93505
G1 X116.732 Y87.945 E11.94832
G1 X116.962 Y88.243 E11.96084
G1 X117.172 Y88.574 E11.97388
G1 X117.356 Y88.938 E11.98744
G1 X117.503 Y89.309 E12.00072
G1 X117.609 Y89.673 E12.01333
G1 X117.682 Y90.045 E12.02594
G1 X117.722 Y90.443 E12.03924
G1 X117.744 Y91.122 E12.06183
G1 X118.279 Y91.563 E12.08489
G1 X118.326 Y92.045 E12.101
G1 X117.198 Y93.42 E12.16016
G1 X118.572 Y94.55 E12.21932
G1 X118.619 Y95.029 E12.23533
G1 X117.489 Y96.405 E12.29455
G1 X118.864 Y97.536 E12.35377
G1 X118.911 Y98.017 E12.36984
G1 X117.783 Y99.392 E12.429
G1 X119.157 Y100.521 E12.48814
G1 X119.204 Y101.002 E12.50422
G1 X118.072 Y102.376 E12.56343
G1 X119.449 Y103.507 E12.6227
G1 X119.496 Y103.988 E12.63877
G1 X118.368 Y105.363 E12.69792
G1 X119.742 Y106.493 E12.75709
G1 X119.789 Y106.972 E12.7731
G1 X118.658 Y108.349 E12.83237
G1 X120.034 Y109.48 E12.89161
G1 X120.081 Y109.959 E12.90762
G1 X118.953 Y111.335 E12.9668
G1 X120.327 Y112.464 E13.02594
G1 X120.374 Y112.943 E13.04195
G1 X119.244 Y114.319 E13.10117
G1 X120.619 Y115.451 E13.16041
G1 X120.667 Y115.931 E13.17646
G1 X119.535 Y117.306 E13.23569
G1 X120.912 Y118.436 E13.29494
G1 X120.958 Y118.917 E13.31101
G1 X119.832 Y120.294 E13.37017
G1 X121.205 Y121.423 E13.42929
G1 X121.252 Y121.9 E13.44524
G1 X120.123 Y123.275 E13.50441
G1 X121.376 Y124.308 E13.55842
G1 X121.553 Y139.532 E14.06481
G1 X119.733 Y147.335 E14.3313
G1 X119.617 Y147.7 E14.34404
G1 X119.548 Y147.855 E14.34968
G1 X119.357 Y148.173 E14.36202
G1 X119.252 Y148.307 E14.36768
G1 X119.061 Y148.502 E14.37676
G0 F6000 X119.433 Y147.718
G1 F900 X119.289 Y147.573 E14.38356
G0 F6000 X119.577 Y147.295
G1 F900 X119.328 Y147.047 E14.39525
G0 F6000 X119.685 Y146.838
G1 F900 X119.368 Y146.521 E14.41016
G0 F6000 X119.792 Y146.379
G1 F900 X119.407 Y145.994 E14.42827
G0 F6000 X119.899 Y145.92
G1 F900 X119.445 Y145.467 E14.4496
G0 F6000 X119.484 Y144.94
G1 F900 X120.006 Y145.462 E14.47415
G0 F6000 X120.113 Y145.003
G1 F900 X119.524 Y144.414 E14.50186
G0 F6000 X119.563 Y143.887
G1 F900 X120.22 Y144.544 E14.53276
G0 F6000 X120.326 Y144.085
G1 F900 X119.602 Y143.36 E14.56684
G0 F6000 X119.363 Y143.121
G1 F900 X113.996 Y137.755 E14.81926
G0 F6000 X113.958 Y138.282
G1 F900 X118.668 Y142.992 E15.04081
G0 F6000 X117.972 Y142.863
G1 F900 X113.919 Y138.809 E15.23147
G0 F6000 X113.88 Y139.336
G1 F900 X117.277 Y142.733 E15.39126
G0 F6000 X116.582 Y142.603
G1 F900 X113.84 Y139.862 E15.52021
G0 F6000 X113.801 Y140.388
G1 F900 X115.887 Y142.474 E15.61833
G0 F6000 X115.191 Y142.344
G1 F900 X113.762 Y140.915 E15.68554
G0 F6000 X113.723 Y141.442
G1 F900 X114.496 Y142.215 E15.7219
G0 F6000 X113.801 Y142.086
G1 F900 X113.685 Y141.969 E15.72738
G0 F6000 X113.25 Y141.937
G0 X113.6 Y137.196
G0 X114.035 Y137.228
G1 F900 X120.434 Y143.627 E16.02837
G0 F6000 X120.541 Y143.168
G1 F900 X114.074 Y136.702 E16.33254
G0 F6000 X114.113 Y136.175
G1 F900 X120.647 Y142.709 E16.63987
G0 F6000 X120.755 Y142.251
G1 F900 X114.152 Y135.648 E16.95046
G0 F6000 X114.191 Y135.121
G1 F900 X120.862 Y141.792 E17.26424
G0 F6000 X120.968 Y141.333
G1 F900 X114.23 Y134.594 E17.5812
G0 F6000 X114.269 Y134.068
G1 F900 X121.076 Y140.875 E17.90138
G0 F6000 X121.183 Y140.416
G1 F900 X114.308 Y133.541 E18.22476
G0 F6000 X114.346 Y133.014
G1 F900 X121.29 Y139.957 E18.55136
G0 F6000 X121.393 Y139.495
G1 F900 X114.385 Y132.487 E18.881
G0 F6000 X114.424 Y131.96
G1 F900 X121.386 Y138.923 E19.20849
G0 F6000 X121.379 Y138.35
G1 F900 X114.463 Y131.434 E19.5338
G0 F6000 X114.502 Y130.907
G1 F900 X121.373 Y137.778 E19.85699
G0 F6000 X121.367 Y137.206
G1 F900 X114.541 Y130.38 E20.17806
G0 F6000 X114.58 Y129.854
G1 F900 X121.36 Y136.633 E20.49695
G0 F6000 X121.353 Y136.061
G1 F900 X114.619 Y129.327 E20.8137
G0 F6000 X114.658 Y128.8
G1 F900 X121.346 Y135.488 E21.12828
G0 F6000 X121.34 Y134.916
G1 F900 X114.697 Y128.274 E21.44072
G0 F6000 X114.736 Y127.747
G1 F900 X121.333 Y134.343 E21.751
G0 F6000 X121.326 Y133.771
G1 F900 X114.775 Y127.22 E22.05914
G0 F6000 X114.814 Y126.693
G1 F900 X121.32 Y133.199 E22.36516
G0 F6000 X121.313 Y132.627
G1 F900 X114.853 Y126.166 E22.66905
G0 F6000 X114.892 Y125.64
G1 F900 X121.306 Y132.055 E22.97076
G0 F6000 X121.299 Y131.482
G1 F900 X114.931 Y125.113 E23.27032
G0 F6000 X114.969 Y124.586
G1 F900 X121.293 Y130.91 E23.56778
G0 F6000 X121.286 Y130.337
G1 F900 X115.008 Y124.059 E23.86308
G0 F6000 X115.047 Y123.532
G1 F900 X121.28 Y129.765 E24.15626
G0 F6000 X121.273 Y129.193
G1 F900 X115.086 Y123.006 E24.44728
G0 F6000 X115.125 Y122.479
G1 F900 X121.266 Y128.62 E24.73613
G0 F6000 X121.26 Y128.048
G1 F900 X115.164 Y121.952 E25.02287
G0 F6000 X115.203 Y121.425
G1 F900 X121.253 Y127.475 E25.30744
G0 F6000 X121.246 Y126.903
G1 F900 X115.242 Y120.898 E25.58987
G0 F6000 X115.281 Y120.372
G1 F900 X121.24 Y126.331 E25.87017
G0 F6000 X121.233 Y125.758
G1 F900 X115.32 Y119.846 E26.14827
G0 F6000 X115.359 Y119.319
G1 F900 X121.227 Y125.186 E26.42426
G0 F6000 X121.22 Y124.614
G1 F900 X119.922 Y123.316 E26.48532
G0 F6000 X119.899 Y123.293
G1 F900 X115.398 Y118.792 E26.69703
G0 F6000 X115.437 Y118.265
G1 F900 X120.155 Y122.983 E26.91895
G0 F6000 X120.41 Y122.673
G1 F900 X115.476 Y117.738 E27.15105
G0 F6000 X115.515 Y117.212
G1 F900 X120.664 Y122.362 E27.39327
G0 F6000 X120.92 Y122.051
G1 F900 X115.553 Y116.685 E27.64569
G0 F6000 X115.592 Y116.158
G1 F900 X119.671 Y120.237 E27.83756
G0 F6000 X119.926 Y119.926
G1 F900 X115.631 Y115.631 E28.03958
G0 F6000 X115.67 Y115.104
G1 F900 X120.18 Y119.614 E28.25172
G0 F6000 X120.434 Y119.303
G1 F900 X115.709 Y114.578 E28.47397
G0 F6000 X115.748 Y114.051
G1 F900 X120.688 Y118.991 E28.70633
G0 F6000 X121.029 Y119.271
G0 X120.622 Y120.215
G0 X120.687 Y120.635
G0 X120.408 Y120.974
G1 F900 X121.064 Y121.63 E28.73719
G0 F6000 X121.502 Y121.588
G0 X121.045 Y120.555
G0 X120.622 Y120.215
G0 X121.182 Y118.984
G0 X121.118 Y118.325
G0 X119.888 Y117.272
G0 X119.436 Y117.173
G1 F900 X115.787 Y113.524 E28.90882
G0 F6000 X115.826 Y112.997
G1 F900 X119.692 Y116.864 E29.09069
G0 F6000 X119.947 Y116.553
G1 F900 X115.865 Y112.47 E29.28272
G0 F6000 X115.903 Y111.944
G1 F900 X120.203 Y116.243 E29.48496
G0 F6000 X120.459 Y115.933
G1 F900 X115.943 Y111.418 E29.69735
G0 F6000 X115.982 Y110.891
G1 F900 X119.205 Y114.114 E29.84895
G0 F6000 X119.46 Y113.803
G1 F900 X116.021 Y110.364 E30.01071
G0 F6000 X116.06 Y109.837
G1 F900 X119.715 Y113.492 E30.18263
G0 F6000 X119.97 Y113.182
G1 F900 X116.099 Y109.31 E30.36473
G0 F6000 X116.082 Y108.728
G1 F900 X120.203 Y112.849 E30.55857
G0 F6000 X120.641 Y112.807
G0 X120.544 Y112.4
G0 X119.314 Y111.335
G0 X118.974 Y111.055
G1 F900 X116.02 Y108.101 E30.69752
G0 F6000 X115.959 Y107.473
G1 F900 X119.23 Y110.744 E30.85138
G0 F6000 X119.484 Y110.433
G1 F900 X115.897 Y106.846 E31.0201
G0 F6000 X115.836 Y106.219
G1 F900 X119.74 Y110.123 E31.20373
G0 F6000 X119.895 Y109.713
G1 F900 X119.117 Y108.934 E31.24035
G0 F6000 X118.487 Y108.305
G1 F900 X115.774 Y105.592 E31.36796
G0 F6000 X115.713 Y104.965
G1 F900 X118.743 Y107.995 E31.51048
G0 F6000 X118.997 Y107.683
G1 F900 X115.651 Y104.337 E31.66787
G0 F6000 X115.59 Y103.71
G1 F900 X119.252 Y107.373 E31.84014
G0 F6000 X119.507 Y107.062
G1 F900 X115.528 Y103.083 E32.0273
G0 F6000 X115.467 Y102.456
G1 F900 X118.257 Y105.246 E32.15853
G0 F6000 X118.511 Y104.935
G1 F900 X115.404 Y101.828 E32.30468
G0 F6000 X115.343 Y101.201
G1 F900 X118.767 Y104.624 E32.46571
G0 F6000 X119.021 Y104.313
G1 F900 X115.281 Y100.573 E32.64163
G0 F6000 X115.22 Y99.946
G1 F900 X119.276 Y104.003 E32.83243
G0 F6000 X119.616 Y104.282
G0 X119.655 Y103.397
G0 X118.425 Y102.343
G0 X118.023 Y102.184
G1 F900 X115.158 Y99.319 E32.96719
G0 F6000 X115.097 Y98.692
G1 F900 X118.278 Y101.873 E33.11682
G0 F6000 X118.534 Y101.563
G1 F900 X115.035 Y98.065 E33.28138
G0 F6000 X114.974 Y97.437
G1 F900 X118.789 Y101.253 E33.46085
G0 F6000 X119.035 Y100.933
G1 F900 X114.912 Y96.81 E33.65478
G0 F6000 X114.851 Y96.183
G1 F900 X117.794 Y99.127 E33.79323
G0 F6000 X118.049 Y98.816
G1 F900 X114.788 Y95.555 E33.94662
G0 F6000 X114.727 Y94.928
G1 F900 X118.303 Y98.504 E34.11482
G0 F6000 X118.558 Y98.193
G1 F900 X114.665 Y94.301 E34.29792
G0 F6000 X114.604 Y93.673
G1 F900 X117.306 Y96.376 E34.42503
G0 F6000 X117.561 Y96.065
G1 F900 X114.542 Y93.046 E34.56704
G0 F6000 X114.481 Y92.419
G1 F900 X117.816 Y95.754 E34.72391
G0 F6000 X118.071 Y95.443
G1 F900 X114.419 Y91.792 E34.89566
G0 F6000 X114.358 Y91.165
G1 F900 X118.326 Y95.133 E35.0823
G0 F6000 X118.422 Y94.663
G1 F900 X118.26 Y94.501 E35.08992
G0 F6000 X118.54 Y94.162
G0 X117.55 Y93.386
G0 X117.075 Y93.316
G1 F900 X114.296 Y90.537 E35.22064
G0 F6000 X114.281 Y89.957
G1 F900 X117.33 Y93.005 E35.36403
G0 F6000 X117.585 Y92.695
G1 F900 X114.321 Y89.431 E35.51756
G0 F6000 X114.36 Y88.904
G1 F900 X117.84 Y92.384 E35.68125
G0 F6000 X118.095 Y92.073
G1 F900 X114.399 Y88.377 E35.8551
G0 F6000 X114.438 Y87.85
G1 F900 X117.578 Y90.991 E36.00282
G0 F6000 X117.557 Y90.404
G1 F900 X114.477 Y87.324 E36.14769
G0 F6000 X114.516 Y86.798
G1 F900 X117.458 Y89.74 E36.28607
G0 F6000 X117.131 Y88.847
G1 F900 X115.328 Y87.044 E36.37088
G0 F6000 X115.52 Y86.649
G0 X116.609 Y87.492
G0 X117.142 Y88.119
G0 X117.556 Y88.845
G0 X118.485 Y91.454
G0 X118.55 Y92.113
G0 X117.49 Y93.392
G0 X118.778 Y94.44
G0 X118.836 Y95.032
G0 X118.075 Y96.526
G0 X117.796 Y96.865
G1 F900 X118.728 Y97.797 E36.41472
G1 F1500 E29.91472
G0 F6000 X119.166 Y97.755
G0 X119.047 Y98.739
G0 X118.574 Y99.314
G0 X119.363 Y100.411
G0 X119.428 Y101.069
G0 X118.864 Y102.298
G0 X119.655 Y103.397
G0 X119.72 Y104.056
G0 X119.116 Y104.773
G0 X119.109 Y105.7
G0 X119.948 Y106.383
G0 X120.013 Y107.041
G0 X119.09 Y108.432
G0 X120.24 Y109.369
G0 X120.305 Y110.027
G0 X119.245 Y111.307
G0 X120.533 Y112.354
G0 X120.598 Y113.012
G0 X119.535 Y114.292
G0 X120.826 Y115.341
G0 X120.891 Y115.999
G0 X119.828 Y117.278
G0 X121.118 Y118.325
G0 X121.182 Y118.984
G0 X120.124 Y120.266
G0 X121.411 Y121.312
G0 X121.476 Y121.969
G0 X120.415 Y123.248
G0 X121.591 Y124.205
G0 X121.772 Y139.553
G0 X119.824 Y147.776
G0 X119.417 Y148.453
G0 X119.058 Y148.765
G0 X118.808 Y148.667
G0 X118.94 Y148.638
;TYPE:SKIN
G1 F1500 E36.41472
G1 F900 X119.071 Y148.769 E36.4178
G0 F6000 X119.053 Y148.735
;MESH:NONMESH
G0 F300 X119.053 Y148.735 Z0.4
G0 F6000 X118.957 Y148.941
;TIME_ELAPSED:89.536307
;LAYER:1
M106 S85
;TYPE:WALL-INNER
;MESH:Cnc_Clamp_-_Runt_Clamp_8_mm_Hole_.stl
G1 F1200 X118.824 Y148.887 E36.42257
G1 X118.722 Y148.777 E36.42756
G1 X118.667 Y148.545 E36.43549
