;FLAVOR:Marlin
;TIME:5089
;Filament used: 2.38312m
;Layer height: 0.2
;MINX:90.622
;MINY:108.25
;MINZ:0.2
;MAXX:143.61
;MAXY:162.101
;MAXZ:17.4
;Generated with Cura_SteamEngine 4.10.0
M140 S60
M105
M190 S60
M104 S200
M105
M109 S200
M82 ;absolute extrusion mode
; Ender 3 Custom Start G-code
G92 E0 ; Reset Extruder
G28 ; Home all axes
G29
G1 Z2.0 F3000 ; Move Z Axis up little to prevent scratching of Heat Bed
G1 X0.1 Y20 Z0.3 F5000.0 ; Move to start position
G1 X0.1 Y200.0 Z0.3 F1500.0 E15 ; Draw the first line
G1 X0.4 Y200.0 Z0.3 F5000.0 ; Move to side a little
G1 X0.4 Y20 Z0.3 F1500.0 E30 ; Draw the second line
G92 E0 ; Reset Extruder
G1 Z2.0 F3000 ; Move Z Axis up little to prevent scratching of Heat Bed
G1 X5 Y20 Z0.3 F5000.0 ; Move over to prevent blob squish
G92 E0
G92 E0
G1 F1500 E-6.5
;LAYER_COUNT:87
;LAYER:0
M107
;MESH:Clamp_wedge__8mm_Hole.stl(3)
G0 F6000 X96.678 Y129.774 Z0.2
;TYPE:WALL-INNER
G1 F1500 E0
G1 F900 X96.329 Y130.275 E0.02031
G1 X96.214 Y130.426 E0.02662
G1 X96.079 Y130.495 E0.03166
G1 X95.062 Y130.675 E0.06601
G1 X93.649 Y130.68 E0.11301
G1 X93.343 Y130.656 E0.12322
G1 X93.053 Y130.582 E0.13317
G1 X92.792 Y130.467 E0.14266
G1 X92.55 Y130.309 E0.15227
G1 X92.346 Y130.121 E0.1615
G1 X92.157 Y129.879 E0.17171
G1 X92.026 Y129.635 E0.18092
G1 X91.931 Y129.357 E0.1907
G1 X91.883 Y129.076 E0.20018
G1 X91.876 Y128.913 E0.2056
G1 X91.809 Y109.257 E0.85937
G1 X91.892 Y109.071 E0.86614
G1 X92.03 Y108.851 E0.87478
G1 X92.178 Y108.7 E0.88181
G1 X92.324 Y108.655 E0.88689
G1 X92.535 Y108.749 E0.89458
G1 X93.027 Y109.094 E0.91456
G1 X92.542 Y109.787 E0.9427
G1 X92.855 Y111.561 E1.00261
G1 X93.549 Y112.048 E1.03081
G1 X93.064 Y112.741 E1.05894
G1 X93.377 Y114.517 E1.11892
G1 X93.908 Y114.888 E1.14047
G1 X94.071 Y115.002 E1.14708
G1 X93.957 Y115.165 E1.15135
G1 X93.585 Y115.696 E1.17292
G1 X93.898 Y117.471 E1.23286
G1 X94.593 Y117.958 E1.26109
G1 X94.107 Y118.654 E1.28932
G1 X94.421 Y120.425 E1.34915
G1 X95.114 Y120.911 E1.3773
G1 X94.628 Y121.604 E1.40545
G1 X94.907 Y123.191 E1.45905
G1 X95.009 Y123.427 E1.4676
G1 X95.634 Y123.865 E1.49298
G1 X95.317 Y124.322 E1.51148
G1 X95.145 Y124.53 E1.52046
G1 X95.463 Y126.334 E1.58138
G1 X95.994 Y126.705 E1.60293
G1 X96.157 Y126.819 E1.60954
G1 X96.043 Y126.982 E1.61381
G1 X95.671 Y127.513 E1.63538
G1 X95.984 Y129.288 E1.69532
G1 X96.678 Y129.774 E1.7235
G0 F6000 X97.235 Y129.675
;TYPE:WALL-OUTER
G1 F900 X96.656 Y130.505 E1.75716
G1 X96.482 Y130.735 E1.76675
G1 X96.249 Y130.866 E1.77564
G1 X96.157 Y130.888 E1.77879
G1 X95.099 Y131.075 E1.81453
G1 X93.63 Y131.08 E1.86339
G1 X93.278 Y131.052 E1.87513
G1 X92.922 Y130.962 E1.88734
G1 X92.604 Y130.821 E1.89891
G1 X92.303 Y130.625 E1.91086
G1 X92.048 Y130.391 E1.92237
G1 X91.824 Y130.103 E1.93451
G1 X91.659 Y129.796 E1.9461
G1 X91.542 Y129.454 E1.95812
G1 X91.484 Y129.113 E1.96962
G1 X91.476 Y128.93 E1.97572
G1 X91.409 Y109.172 E2.63287
G1 X91.537 Y108.883 E2.64339
G1 X91.715 Y108.601 E2.65448
G1 X91.951 Y108.36 E2.6657
G1 X92.187 Y108.264 E2.67417
G1 X92.363 Y108.252 E2.68004
G1 X92.612 Y108.319 E2.68862
G1 X92.765 Y108.421 E2.69473
G1 X93.584 Y108.995 E2.728
G1 X92.965 Y109.881 E2.76394
G1 X93.22 Y111.329 E2.81285
G1 X94.106 Y111.95 E2.84883
G1 X93.487 Y112.835 E2.88475
G1 X93.742 Y114.284 E2.93369
G1 X94.628 Y114.904 E2.96965
G1 X94.008 Y115.79 E3.00562
G1 X94.263 Y117.238 E3.05452
G1 X95.15 Y117.859 E3.09054
G1 X94.53 Y118.747 E3.12656
G1 X94.786 Y120.192 E3.17537
G1 X95.671 Y120.812 E3.21131
G1 X95.051 Y121.698 E3.24727
G1 X95.293 Y123.076 E3.29381
G1 X95.331 Y123.164 E3.297
G1 X96.19 Y123.766 E3.33188
G1 X95.635 Y124.566 E3.36427
G1 X95.571 Y124.643 E3.3676
G1 X95.828 Y126.101 E3.41684
G1 X96.714 Y126.721 E3.45281
G1 X96.094 Y127.607 E3.48877
G1 X96.349 Y129.055 E3.53767
G1 X97.235 Y129.675 E3.57364
G0 F6000 X96.859 Y129.742
G0 X96.365 Y130.031
G0 X96.135 Y129.871
;TYPE:SKIN
G1 F900 X95.957 Y130.119 E3.5838
G1 X95.028 Y130.285 E3.61518
G1 X93.654 Y130.29 E3.66088
G1 X93.18 Y130.211 E3.67687
G1 X92.796 Y130.005 E3.69136
G1 X92.484 Y129.663 E3.70676
G1 X92.309 Y129.256 E3.72149
G1 X92.266 Y128.895 E3.73358
G1 X92.202 Y110.103 E4.35861
G1 X92.499 Y111.787 E4.41549
G1 X93.006 Y112.143 E4.43609
G1 X92.652 Y112.65 E4.45666
G1 X93.021 Y114.744 E4.52738
G1 X93.527 Y115.098 E4.54792
G1 X93.173 Y115.605 E4.56848
G1 X93.542 Y117.697 E4.63914
G1 X94.05 Y118.054 E4.65979
G1 X93.695 Y118.563 E4.68043
G1 X94.065 Y120.651 E4.75096
G1 X94.57 Y121.006 E4.77149
G1 X94.216 Y121.512 E4.79203
G1 X94.531 Y123.304 E4.85254
G1 X94.695 Y123.683 E4.86628
G1 X95.093 Y123.962 E4.88245
G1 X95.005 Y124.088 E4.88756
G1 X94.73 Y124.421 E4.90192
G1 X95.107 Y126.561 E4.97419
G1 X95.613 Y126.915 E4.99473
G1 X95.259 Y127.422 E5.0153
G1 X95.628 Y129.514 E5.08595
G1 X96.135 Y129.871 E5.10658
G0 F6000 X96.365 Y130.031
G0 X96.133 Y129.192
G0 X95.73 Y127.114
G0 X95.904 Y126.865
G0 X95.635 Y126.678
G0 X95.178 Y124.222
G0 X95.381 Y123.91
G0 X94.971 Y123.623
G0 X94.502 Y121.468
G0 X94.86 Y120.956
G0 X93.924 Y118.613
G0 X94.34 Y118.004
G0 X93.739 Y117.572
G0 X93.818 Y115.048
G0 X93.218 Y114.618
G0 X93.296 Y112.094
G0 X92.696 Y111.662
G0 X92.774 Y109.14
G0 X92.312 Y108.84
G0 X92.07 Y109.12
G0 X91.92 Y109.596
G0 X92.2 Y109.596
G1 F900 X92.199 Y109.342 E5.11503
G1 X92.336 Y109.097 E5.12436
G1 X92.483 Y109.19 E5.13015
G1 X92.2 Y109.596 E5.14661
G0 F6000 X91.92 Y109.596
G0 X92.043 Y109.152
G0 X92.312 Y108.84
G0 X92.774 Y109.14
G0 X92.696 Y111.662
G0 X93.296 Y112.094
G0 X92.978 Y112.67
G0 X92.618 Y112.417
G1 F900 X92.368 Y112.167 E5.15837
G0 F6000 X92.37 Y112.734
G1 F900 X92.533 Y112.898 E5.16606
G0 F6000 X92.372 Y113.302
G1 F900 X92.654 Y113.584 E5.17932
G0 F6000 X92.374 Y113.87
G1 F900 X92.775 Y114.271 E5.19818
G0 F6000 X92.376 Y114.438
G1 F900 X93.21 Y115.272 E5.23741
G0 F6000 X93.017 Y115.645
G1 F900 X92.377 Y115.005 E5.26752
G0 F6000 X92.379 Y115.573
G1 F900 X93.138 Y116.331 E5.30319
G0 F6000 X93.259 Y117.018
G1 F900 X92.382 Y116.14 E5.34447
G0 F6000 X92.384 Y116.708
G1 F900 X93.38 Y117.704 E5.39132
G0 F6000 X93.625 Y117.95
G1 F900 X93.803 Y118.127 E5.39967
G0 F6000 X93.571 Y118.461
G1 F900 X92.385 Y117.275 E5.45545
G0 F6000 X92.387 Y117.843
G1 F900 X93.624 Y119.08 E5.51364
G0 F6000 X93.746 Y119.767
G1 F900 X92.389 Y118.411 E5.57744
G0 F6000 X92.391 Y118.979
G1 F900 X93.867 Y120.454 E5.64685
G0 F6000 X94.16 Y121.313
G1 F900 X92.393 Y119.546 E5.72996
G0 F6000 X92.395 Y120.114
G1 F900 X94.109 Y121.828 E5.81058
G0 F6000 X94.229 Y122.514
G1 F900 X92.397 Y120.681 E5.89678
G0 F6000 X92.399 Y121.249
G1 F900 X94.349 Y123.199 E5.9885
G0 F6000 X94.783 Y123.124
G0 X95.381 Y123.91
G0 X95.079 Y124.436
G0 X94.74 Y124.156
G1 F900 X92.401 Y121.816 E6.09854
G0 F6000 X92.403 Y122.384
G1 F900 X94.594 Y124.575 E6.2016
G0 F6000 X94.715 Y125.262
G1 F900 X92.405 Y122.952 E6.31026
G0 F6000 X92.407 Y123.52
G1 F900 X94.836 Y125.949 E6.42451
G0 F6000 X94.957 Y126.635
G1 F900 X92.408 Y124.087 E6.54438
G0 F6000 X92.411 Y124.655
G1 F900 X95.11 Y127.354 E6.67133
G0 F6000 X95.344 Y127.022
G1 F900 X95.007 Y126.685 E6.68719
G0 F6000 X95.355 Y126.403
G0 X95.904 Y126.865
G0 X95.633 Y127.933
G0 X95.199 Y128.009
G1 F900 X92.413 Y125.222 E6.81825
G0 F6000 X92.415 Y125.79
G1 F900 X95.32 Y128.696 E6.95492
G0 F6000 X95.441 Y129.382
G1 F900 X92.416 Y126.357 E7.09721
G0 F6000 X92.418 Y126.925
G1 F900 X95.525 Y130.031 E7.24333
G0 F6000 X95.045 Y130.117
G1 F900 X92.42 Y127.493 E7.36678
G0 F6000 X92.423 Y128.061
G1 F900 X94.487 Y130.125 E7.46386
G0 F6000 X93.923 Y130.127
G1 F900 X92.424 Y128.628 E7.53437
G0 F6000 X92.483 Y129.252
G1 F900 X93.298 Y130.068 E7.57273
G0 F6000 X93.188 Y130.503
G0 X92.475 Y130.009
G0 X92.184 Y129.568
G0 X92.074 Y129.031
G0 X91.921 Y109.933
G0 X92.114 Y109.933
;TYPE:SKIN
G1 F900 X91.971 Y109.79 E7.57609
G0 F6000 X92.261 Y109.798
G1 F900 X92.374 Y109.91 E7.57874
G0 F6000 X92.361 Y109.913
G1 F1500 E1.07874
;MESH:Clamp_wedge__8mm_Hole.stl
G0 F6000 X92.45 Y109.899
G0 X92.774 Y109.14
G0 X92.312 Y108.84
G0 X92.043 Y109.152
G0 X92.084 Y128.943
G0 X90.622 Y129.177
G0 X90.774 Y129.904
G0 X91.099 Y130.575
G0 X91.582 Y131.146
G0 X107.043 Y143.82
G0 X108.33 Y144.732
G0 X109.315 Y144.105
G0 X109.621 Y145.734
G0 X109.309 Y146.467
;TYPE:WALL-INNER
G1 F1500 E7.57874
G1 F900 X109.423 Y146.304 E7.58535
G1 X109.794 Y145.773 E7.6069
G1 X109.481 Y143.998 E7.66684
G1 X108.788 Y143.512 E7.695
G1 X109.273 Y142.819 E7.72313
G1 X108.96 Y141.043 E7.78311
G1 X108.429 Y140.672 E7.80466
G1 X108.266 Y140.558 E7.81127
G1 X108.38 Y140.395 E7.81554
G1 X108.751 Y139.865 E7.83706
G1 X108.438 Y138.09 E7.897
G1 X107.744 Y137.602 E7.92522
G1 X108.23 Y136.906 E7.95346
G1 X107.916 Y135.135 E8.01328
G1 X107.223 Y134.649 E8.04143
G1 X107.708 Y133.956 E8.06956
G1 X107.429 Y132.369 E8.12316
G1 X107.327 Y132.134 E8.13168
G1 X106.703 Y131.696 E8.15704
G1 X107.02 Y131.239 E8.17553
G1 X107.192 Y131.031 E8.18451
G1 X106.874 Y129.226 E8.24547
G1 X106.18 Y128.74 E8.27365
G1 X106.665 Y128.047 E8.30178
G1 X106.352 Y126.272 E8.36173
G1 X105.659 Y125.786 E8.38988
G1 X106.003 Y125.293 E8.40988
G1 X106.118 Y125.138 E8.4163
G1 X106.266 Y125.063 E8.42182
G1 X107.275 Y124.885 E8.45589
G1 X108.687 Y124.88 E8.50286
G1 X108.997 Y124.906 E8.5132
G1 X109.282 Y124.979 E8.52299
G1 X109.541 Y125.091 E8.53237
G1 X109.787 Y125.251 E8.54213
G1 X109.992 Y125.44 E8.55141
G1 X110.18 Y125.684 E8.56165
G1 X110.31 Y125.926 E8.57079
G1 X110.407 Y126.21 E8.58077
G1 X110.453 Y126.482 E8.58995
G1 X110.46 Y126.64 E8.59521
G1 X110.528 Y146.304 E9.24924
G1 X110.445 Y146.49 E9.25601
G1 X110.305 Y146.711 E9.26471
G1 X110.097 Y146.89 E9.27384
G1 X109.892 Y146.873 E9.28068
G1 X109.472 Y146.58 E9.29772
G1 X109.309 Y146.467 E9.30197
G0 F6000 X108.752 Y146.565
;TYPE:WALL-OUTER
G1 F900 X109.371 Y145.679 E9.33792
G1 X109.116 Y144.231 E9.38682
G1 X108.231 Y143.611 E9.42276
G1 X108.85 Y142.725 E9.45871
G1 X108.595 Y141.276 E9.50764
G1 X107.709 Y140.656 E9.54361
G1 X108.328 Y139.771 E9.57953
G1 X108.073 Y138.322 E9.62847
G1 X107.187 Y137.701 E9.66445
G1 X107.807 Y136.813 E9.70047
G1 X107.551 Y135.368 E9.74928
G1 X106.666 Y134.748 E9.78522
G1 X107.285 Y133.862 E9.82117
G1 X107.043 Y132.484 E9.8677
G1 X107.005 Y132.396 E9.87089
G1 X106.147 Y131.794 E9.90575
G1 X106.702 Y130.995 E9.93811
G1 X106.766 Y130.918 E9.94144
G1 X106.509 Y129.459 E9.99071
G1 X105.623 Y128.839 E10.02668
G1 X106.242 Y127.953 E10.06263
G1 X105.987 Y126.505 E10.11153
G1 X105.102 Y125.885 E10.14747
G1 X105.681 Y125.055 E10.18113
G1 X105.846 Y124.832 E10.19036
G1 X106.09 Y124.694 E10.19968
G1 X106.18 Y124.672 E10.20276
G1 X107.238 Y124.485 E10.2385
G1 X108.707 Y124.48 E10.28736
G1 X109.06 Y124.509 E10.29914
G1 X109.414 Y124.6 E10.31129
G1 X109.73 Y124.737 E10.32275
G1 X110.034 Y124.935 E10.33482
G1 X110.289 Y125.17 E10.34635
G1 X110.515 Y125.463 E10.35866
G1 X110.68 Y125.77 E10.37025
G1 X110.795 Y126.107 E10.38209
G1 X110.852 Y126.447 E10.39356
G1 X110.86 Y126.622 E10.39938
G1 X110.928 Y146.388 E11.05681
G1 X110.8 Y146.678 E11.06735
G1 X110.628 Y146.949 E11.07803
G1 X110.459 Y147.144 E11.08661
G1 X110.229 Y147.275 E11.09541
G1 X109.975 Y147.309 E11.10394
G1 X109.726 Y147.243 E11.1125
G1 X109.572 Y147.139 E11.11869
G1 X108.752 Y146.565 E11.15198
G0 F6000 X109.129 Y146.499
G0 X109.693 Y146.6
G0 X109.853 Y146.371
;TYPE:SKIN
G1 F900 X110.137 Y145.963 E11.16851
G1 X110.138 Y146.22 E11.17706
G1 X110.006 Y146.454 E11.18599
G1 X109.853 Y146.371 E11.19178
G0 F6000 X110.135 Y145.462
G1 F900 X109.838 Y143.772 E11.24885
G1 X109.332 Y143.416 E11.26943
G1 X109.685 Y142.91 E11.28995
G1 X109.316 Y140.816 E11.36067
G1 X108.81 Y140.462 E11.38121
G1 X109.163 Y139.956 E11.40173
G1 X108.795 Y137.864 E11.47238
G1 X108.286 Y137.507 E11.49306
G1 X108.642 Y136.997 E11.51375
G1 X108.272 Y134.909 E11.58427
G1 X107.767 Y134.553 E11.60482
G1 X108.12 Y134.047 E11.62535
G1 X107.805 Y132.256 E11.68583
G1 X107.641 Y131.878 E11.69953
G1 X107.244 Y131.599 E11.71567
G1 X107.332 Y131.473 E11.72078
G1 X107.607 Y131.14 E11.73515
G1 X107.23 Y129 E11.80742
G1 X106.724 Y128.644 E11.828
G1 X107.077 Y128.138 E11.84852
G1 X106.709 Y126.046 E11.91917
G1 X106.202 Y125.69 E11.93977
G1 X106.378 Y125.443 E11.94986
G1 X106.39 Y125.437 E11.95031
G1 X107.309 Y125.275 E11.98134
G1 X108.678 Y125.27 E12.02688
G1 X109.156 Y125.349 E12.04299
G1 X109.549 Y125.562 E12.05786
G1 X109.85 Y125.895 E12.07279
G1 X110.029 Y126.312 E12.08788
G1 X110.07 Y126.642 E12.09894
G1 X110.135 Y145.462 E12.7249
G0 F6000 X109.86 Y145.51
G0 X109.041 Y143.466
G0 X109.38 Y142.86
G0 X109.737 Y143.112
G1 F900 X109.967 Y143.343 E12.73574
G0 F6000 X109.965 Y142.775
G1 F900 X109.793 Y142.602 E12.74386
G0 F6000 X109.964 Y142.208
G1 F900 X109.672 Y141.916 E12.75759
G0 F6000 X109.962 Y141.64
G1 F900 X109.552 Y141.23 E12.77688
G0 F6000 X109.96 Y141.072
G1 F900 X109.145 Y140.258 E12.81519
G0 F6000 X109.307 Y139.854
G1 F900 X109.957 Y140.504 E12.84576
G0 F6000 X109.956 Y139.937
G1 F900 X109.187 Y139.168 E12.88193
G0 F6000 X109.066 Y138.482
G1 F900 X109.954 Y139.37 E12.9237
G0 F6000 X109.952 Y138.802
G1 F900 X108.946 Y137.796 E12.97102
G0 F6000 X108.871 Y137.721
G1 F900 X108.552 Y137.402 E12.98603
G0 F6000 X108.784 Y137.069
G1 F900 X109.95 Y138.234 E13.04085
G0 F6000 X109.948 Y137.666
G1 F900 X108.702 Y136.42 E13.09946
G0 F6000 X108.58 Y135.733
G1 F900 X109.946 Y137.099 E13.16371
G0 F6000 X109.944 Y136.531
G1 F900 X108.458 Y135.046 E13.23358
G0 F6000 X108.195 Y134.216
G1 F900 X109.942 Y135.963 E13.31576
G0 F6000 X109.94 Y135.396
G1 F900 X108.217 Y133.672 E13.39682
G0 F6000 X108.096 Y132.986
G1 F900 X109.938 Y134.828 E13.48347
G0 F6000 X109.936 Y134.261
G1 F900 X107.975 Y132.3 E13.5757
G0 F6000 X107.617 Y131.376
G1 F900 X109.934 Y133.693 E13.68469
G0 F6000 X109.932 Y133.125
G1 F900 X107.731 Y130.925 E13.78819
G0 F6000 X107.611 Y130.238
G1 F900 X109.93 Y132.557 E13.89727
G0 F6000 X109.928 Y131.99
G1 F900 X107.49 Y129.551 E14.01197
G0 F6000 X107.057 Y129.627
G0 X106.433 Y128.694
G0 X106.654 Y128.256
G0 X107.012 Y128.508
G1 F900 X109.926 Y131.422 E14.14904
G0 F6000 X109.924 Y130.855
G1 F900 X107.244 Y128.175 E14.2751
G0 F6000 X107.125 Y127.489
G1 F900 X109.922 Y130.287 E14.40668
G0 F6000 X109.921 Y129.72
G1 F900 X107.005 Y126.804 E14.54384
G0 F6000 X106.884 Y126.117
G1 F900 X109.919 Y129.152 E14.6866
G0 F6000 X109.916 Y128.584
G1 F900 X106.85 Y125.517 E14.83084
G0 F6000 X107.332 Y125.434
G1 F900 X109.914 Y128.016 E14.95229
G0 F6000 X109.912 Y127.448
G1 F900 X107.896 Y125.432 E15.04711
G0 F6000 X108.459 Y125.43
G1 F900 X109.911 Y126.881 E15.11539
G0 F6000 X109.816 Y126.221
G1 F900 X109.095 Y125.5 E15.1493
G0 F6000 X109.271 Y125.096
G0 X109.865 Y125.554
G0 X110.152 Y125.993
G0 X110.262 Y126.516
G0 X110.416 Y145.625
G0 X110.27 Y145.625
;TYPE:SKIN
G1 F900 X110.365 Y145.721 E15.15155
G0 F6000 X110.142 Y145.78
G1 F900 X110.01 Y145.649 E15.15464
G0 F6000 X109.888 Y145.67
G0 X109.562 Y146.422
G0 X109.857 Y146.715
G0 X109.894 Y146.663
G1 F900 X109.942 Y146.711 E15.15577
G0 F6000 X110.027 Y147.08
G1 F900 X110.248 Y147.017 E15.15882
G0 F6000 X110.312 Y146.958
G1 F1500 E8.65882
;MESH:Clamp_wedge__8mm_Hole.stl(1)
G0 F6000 X110.262 Y146.911
G0 X109.05 Y146.513
G0 X108.433 Y147.396
G0 X98.759 Y159.001
G0 X98.142 Y159.884
G0 X97.883 Y159.931
;TYPE:WALL-INNER
G1 F1500 E15.15882
G1 F900 X97.54 Y160.422 E15.17874
G1 X97.422 Y160.58 E15.1853
G1 X97.275 Y160.654 E15.19078
G1 X96.266 Y160.832 E15.22485
G1 X94.854 Y160.837 E15.27182
G1 X94.543 Y160.811 E15.2822
G1 X94.257 Y160.738 E15.29202
G1 X94 Y160.626 E15.30134
G1 X93.754 Y160.466 E15.3111
G1 X93.549 Y160.277 E15.32037
G1 X93.363 Y160.035 E15.33053
G1 X93.231 Y159.791 E15.33975
G1 X93.134 Y159.508 E15.3497
G1 X93.088 Y159.229 E15.35911
G1 X93.081 Y159.07 E15.3644
G1 X93.013 Y139.413 E16.0182
G1 X93.096 Y139.227 E16.02497
G1 X93.236 Y139.006 E16.03368
G1 X93.436 Y138.829 E16.04256
G1 X93.543 Y138.815 E16.04615
G1 X93.74 Y138.906 E16.05337
G1 X94.232 Y139.25 E16.07333
G1 X93.747 Y139.944 E16.10149
G1 X94.06 Y141.719 E16.16144
G1 X94.753 Y142.205 E16.18959
G1 X94.268 Y142.898 E16.21773
G1 X94.581 Y144.674 E16.27771
G1 X95.112 Y145.045 E16.29925
G1 X95.275 Y145.159 E16.30587
G1 X95.161 Y145.322 E16.31014
G1 X94.79 Y145.852 E16.33165
